X:1
T:Title
%%score { 1 | 2 }
L:1/8
Q:1/4=80
M:4/4
K:Bb
V:1 treble nm="Grand Piano"
V:2 bass 
V:1
 (3[DF][DF][DF] [B,D](3:2:2[B,D]/[CE] [DF]2 [DB]>[Ec] | [Fd]>[Fd] [Fd]>[Ec] [DB]4 | %2
w: R.~E.~Winsett * * * * * * * *||
 (3GGG GG/[FA]/ [GB]2 [GB]>[GB] | [GB]>[EG] [DF]>[_D=E] [=DF]4 | %4
w: ||
 (3[DF][DF][DF] (3:2:2[B,D]2 [CE] [DF][DF] [DF]F/F/ | B>B (3[Gc][GB][EG] [DB]4 | %6
w: ||
 (3[DF][DF][DF] (3[FB][FB][Gc] d2 B>c | d>d d>c [DB]4 | (3ddd B(3:2:2B/c d4 | %9
w: |||
 (3[GB][GB][GB] (3[Gc][GB][EG] [DB]3 [DF]/[DF]/ | [DF]>[DF] (3[EG]FD [DF]3 B,/C/ | %11
w: ||
 D>[B,D] [G,C]>[G,B,] [A,C]4 | (3[DF][DF][DF] (3:2:2[B,D]2 [CE] [DF][DF] [DF]F/F/ | %13
w: ||
 B>B (3[Gc][GB][EG] [DB]4 | (3[DF][DF][DF] (3[FB][FB][Gc] d2 B>c |[M:8/4] d>dd>c [DB]4 z8 |] %16
w: |||
V:2
 (3[B,,B,][B,,B,][B,,B,] [B,,F,](3:2:2[B,,F,]/[B,,B,] [B,,B,]2 [B,,F,]>[B,,F,] | %1
 [B,,B,]>[B,,B,] [B,,B,]>[B,,B,] [B,,B,]4 | %2
 (3[E,B,E][E,B,E][E,B,E] [E,B,E][E,B,E]/[E,B,]/ [E,B,]2 [E,B,]>[E,B,] | %3
 [B,,B,]>[B,,B,] [B,,B,]>[B,,G,] [B,,F,]4 | %4
 (3[B,,B,][B,,B,][B,,B,] (3:2:2[B,,F,]2 [B,,F,] [B,,B,][B,,B,][B,,B,][D,B,] | %5
 [E,G,E]>[E,G,E] (3[E,B,][E,B,][E,B,] [B,,B,]4 | %6
 (3[B,,B,][B,,B,][B,,B,] (3[D,B,][D,B,][E,B,] [F,B,F]2 [G,B,D]>[G,B,E] | %7
 [F,B,F]>[F,B,F] [F,A,F]>[F,A,E] [B,,B,]4 | (3[B,F][B,F][B,F] [B,D](3:2:2[B,D]/[B,E] [B,F]4 | %9
 (3[E,E][E,E][E,E] (3[E,E][E,E][E,B,] [B,,B,]3 [B,,B,]/[B,,B,]/ | %10
 [B,,B,]>[B,,B,] (3[B,,B,]-[B,,B,D][B,,B,] [B,,B,]3 [C,F,]/[C,F,A,]/ | %11
 [B,,F,B,]>[G,,G,] [C,=E,]>[C,E,] [F,,F,]4 | %12
 (3[B,,B,][B,,B,][B,,B,] (3:2:2[B,,F,]2 [B,,F,] [B,,B,][B,,B,][B,,B,][D,B,] | %13
 [E,G,E]>[E,G,E] (3[E,B,][E,B,][E,B,] [B,,B,]4 | %14
 (3[B,,B,][B,,B,][B,,B,] (3[D,B,][D,B,][E,B,] [F,B,F]2 [G,B,D]>[G,B,E] | %15
[M:8/4] [F,B,F]>[F,B,F][F,A,F]>[F,A,E] [B,,B,]4 z8 |] %16

